tokens/1/0xe9f6d9898f9269b519e1435e6ebaff766c7f46bf/logo.svg

<?xml version="1.0" encoding="UTF-8" standalone="no"?>
<svg
   width="3480"
   height="3480"
   viewBox="0 0 3480 3480"
   fill="none"
   version="1.1"
   id="svg3"
   sodipodi:docname="vtao-off-site.svg"
   xml:space="preserve"
   inkscape:version="1.4.2 (ebf0e940, 2025-05-08)"
   inkscape:export-filename="vtao-solo-32.png"
   inkscape:export-xdpi="1"
   inkscape:export-ydpi="1"
   xmlns:inkscape="http://www.inkscape.org/namespaces/inkscape"
   xmlns:sodipodi="http://sodipodi.sourceforge.net/DTD/sodipodi-0.dtd"
   xmlns="http://www.w3.org/2000/svg"
   xmlns:svg="http://www.w3.org/2000/svg"><sodipodi:namedview
     id="namedview3"
     pagecolor="#ffffff"
     bordercolor="#000000"
     borderopacity="0.25"
     inkscape:showpageshadow="2"
     inkscape:pageopacity="0.0"
     inkscape:pagecheckerboard="0"
     inkscape:deskcolor="#d1d1d1"
     inkscape:zoom="0.16110157"
     inkscape:cx="1797.0029"
     inkscape:cy="2094.9516"
     inkscape:window-width="1360"
     inkscape:window-height="702"
     inkscape:window-x="0"
     inkscape:window-y="38"
     inkscape:window-maximized="0"
     inkscape:current-layer="svg3" /><path
     fill-rule="evenodd"
     clip-rule="evenodd"
     d="M1714.45 1299.34C1707.26 1299.38 1700.36 1300.24 1693.72 1301.93C1684.82 1301.23 1683.1 1304.03 1688.54 1310.35C1756.98 1344.25 1808.14 1395.42 1842.04 1463.86C1851.12 1488.1 1856.73 1513.14 1858.88 1538.99C1860.56 1566.61 1861.85 1594.24 1862.77 1621.89C1866.71 1771.71 1869.74 1921.54 1871.84 2071.39C1874.14 2164.3 1878.03 2257.14 1883.5 2349.9C1885.62 2376.84 1889.08 2403.62 1893.86 2430.21C1907.21 2483.98 1937.66 2524.79 1985.18 2552.63C2009.3 2563.11 2033.06 2574.34 2056.43 2586.31C2061.9 2589.83 2066.21 2594.36 2069.38 2599.91C2065.87 2606.86 2060.26 2611.4 2052.54 2613.51C2001.25 2630.72 1948.56 2640.87 1894.51 2643.95C1869.88 2644.04 1845.27 2643.61 1820.67 2642.66C1756.87 2638.32 1700.73 2615.65 1652.27 2574.65C1601.38 2525.32 1574.61 2465.08 1571.96 2393.94C1571.45 2382.06 1570.59 2370.4 1569.37 2358.97C1567.56 2180.2 1565.62 2001.44 1563.54 1822.68C1559.07 1671.57 1555.83 1520.44 1553.82 1369.29C1553.61 1345.11 1553.17 1320.93 1552.53 1296.75C1348.94 1295.46 1145.13 1295.03 941.105 1295.46C941.105 1293.73 941.105 1292 941.105 1290.28C951.763 1194.05 991.919 1112.65 1061.58 1046.1C1074.91 1034.24 1089.59 1024.31 1105.62 1016.3C1107.78 1015.87 1109.94 1015.44 1112.1 1015.01C1245.9 1010.25 1379.76 1008.09 1513.66 1008.53C1832.76 1007.45 2151.86 1007.67 2470.95 1009.18C2466.81 1037.05 2461.41 1064.68 2454.76 1092.08C2426.77 1174.05 2372.58 1231.26 2292.19 1263.72C2272.8 1270.94 2252.93 1276.56 2232.6 1280.56C2167.78 1290.29 2102.58 1295.04 2037 1294.81C1929.47 1295.78 1821.95 1297.29 1714.45 1299.34Z"
     fill="#88DCFD"
     id="path1" /><path
     d="M 3479.9218,1739.9609 A 1739.9609,1739.9609 0 1 1 0,1739.9609 A 1739.9609,1739.9609 0 1 1 3479.9218,1739.9609 Z M 3169.2167,1739.9609 A 1429.2558,1429.2558 0 1 0 310.7051,1739.9609 A 1429.2558,1429.2558 0 1 0 3169.2167,1739.9609 Z"
     style="fill:url(#paint0_linear_256_26)"
     id="path5"
     inkscape:export-filename="vtao-solo-full.png"
     inkscape:export-xdpi="96.002151"
     inkscape:export-ydpi="96.002151" /><defs
     id="defs3"><linearGradient
       id="paint0_linear_256_26"
       x1="1739.95"
       y1="0"
       x2="1739.95"
       y2="3479.91"
       gradientUnits="userSpaceOnUse"><stop
         stop-color="#75E8FF"
         id="stop2" /><stop
         offset="1"
         stop-color="#C1F5FF"
         id="stop3" /></linearGradient></defs><g
     style="fill:none"
     id="g10"
     transform="matrix(0.13602519,0,0,0.13602519,756.9323,1552.1179)"><circle
       cx="1381.24"
       cy="1381.23"
       r="1380.76"
       fill="#88dcfd"
       id="circle1" /><path
       d="M 1272.12,1994.13 844.963,909.508 h 277.177 l 297.27,795.392 h 6.7 l 293.25,-795.392 h 271.82 L 1564.03,1994.13 Z"
       fill="#1c1c1c"
       id="path1-7" /></g></svg>

<?xml version="1.0" encoding="UTF-8" standalone="no"?>
<svg
   width="3480"
   height="3480"
   viewBox="0 0 3480 3480"
   fill="none"
   version="1.1"
   id="svg3"
   xml:space="preserve"
   xmlns="http://www.w3.org/2000/svg"
   xmlns:svg="http://www.w3.org/2000/svg"><path
     fill-rule="evenodd"
     clip-rule="evenodd"
     d="m 1714.45,1299.34 c -7.19,0.04 -14.09,0.9 -20.73,2.59 -8.9,-0.7 -10.62,2.1 -5.18,8.42 68.44,33.9 119.6,85.07 153.5,153.51 9.08,24.24 14.69,49.28 16.84,75.13 1.68,27.62 2.97,55.25 3.89,82.9 3.94,149.82 6.97,299.65 9.07,449.5 2.3,92.91 6.19,185.75 11.66,278.51 2.12,26.94 5.58,53.72 10.36,80.31 13.35,53.77 43.8,94.58 91.32,122.42 24.12,10.48 47.88,21.71 71.25,33.68 5.47,3.52 9.78,8.05 12.95,13.6 -3.51,6.95 -9.12,11.49 -16.84,13.6 -51.29,17.21 -103.98,27.36 -158.03,30.44 -24.63,0.09 -49.24,-0.34 -73.84,-1.29 -63.8,-4.34 -119.94,-27.01 -168.4,-68.01 -50.89,-49.33 -77.66,-109.57 -80.31,-180.71 -0.51,-11.88 -1.37,-23.54 -2.59,-34.97 -1.81,-178.77 -3.75,-357.53 -5.83,-536.29 -4.47,-151.11 -7.71,-302.24 -9.72,-453.39 -0.21,-24.18 -0.65,-48.36 -1.29,-72.54 -203.59,-1.29 -407.4,-1.72 -611.425,-1.29 0,-1.73 0,-3.46 0,-5.18 10.658,-96.23 50.814,-177.63 120.475,-244.18 13.33,-11.86 28.01,-21.79 44.04,-29.8 2.16,-0.43 4.32,-0.86 6.48,-1.29 133.8,-4.76 267.66,-6.92 401.56,-6.48 319.1,-1.08 638.2,-0.86 957.29,0.65 -4.14,27.87 -9.54,55.5 -16.19,82.9 -27.99,81.97 -82.18,139.18 -162.57,171.64 -19.39,7.22 -39.26,12.84 -59.59,16.84 -64.82,9.73 -130.02,14.48 -195.6,14.25 -107.53,0.97 -215.05,2.48 -322.55,4.53 z"
     fill="#88dcfd"
     id="path1" /><path
     d="M 1745.58,0.00878906 C 2703.94,3.04352 3479.91,780.882 3479.91,1739.96 l -0.01,5.62 c -1.12,353.58 -107.71,682.34 -289.95,956.45 -56.82,-89.39 -143.26,-158.11 -245.51,-192.35 142.27,-222.18 224.76,-486.32 224.76,-769.72 0,-789.357 -639.89,-1429.254 -1429.24,-1429.254 -789.357,0 -1429.254,639.897 -1429.254,1429.254 10e-4,789.35 639.897,1429.24 1429.254,1429.24 213.64,0 416.34,-46.88 598.36,-130.91 20.16,107.32 77.1,201.66 157.23,269.43 -228.51,110.34 -484.83,172.19 -755.59,172.19 l -5.63,-0.01 C 777.84,3476.87 3.03777,2702.07 0.00878906,1745.58 L 0,1739.96 C 0,779.005 779.005,0 1739.96,0 Z"
     fill="url(#paint0_linear_256_26)"
     id="path2"
     style="fill:url(#paint0_linear_256_26)" /><defs
     id="defs3"><linearGradient
       id="paint0_linear_256_26"
       x1="1739.95"
       y1="0"
       x2="1739.95"
       y2="3479.9099"
       gradientUnits="userSpaceOnUse"><stop
         stop-color="#75E8FF"
         id="stop2" /><stop
         offset="1"
         stop-color="#C1F5FF"
         id="stop3" /></linearGradient></defs><g
     style="fill:none"
     id="g3"
     transform="matrix(0.42116532,0,0,0.42116532,2316.7414,2316.7456)"><circle
       cx="1381.24"
       cy="1381.23"
       r="1380.76"
       fill="#88dcfd"
       id="circle1" /><path
       d="M 1272.12,1994.13 844.963,909.508 h 277.177 l 297.27,795.392 h 6.7 l 293.25,-795.392 h 271.82 L 1564.03,1994.13 Z"
       fill="#1c1c1c"
       id="path1-7" /></g></svg>
